X:90
T:Gan Ainm
R:Hornpipe
S:Feeley Kearny, Tyrone (fiddle)
D:Session tape - Buncrana 1979
Z:Bernie Stocks
M:4/4
K:G
Bc || d2^cd gdBA | G2FG D2EF | G2e2 edcB | (3ABA (3GFE D2Bc |
d2^cd g2fe | d2BG D2EF | G2Be dDEF | G2BA G4 ::
K:D\
A2^GA fAGA | FAEA D2FG | A2cd e2Ac | eAce d2de |
(3fedce d2FG | A2ce d3e | (3fedec dAFE | D2FA d4 :|
<end>
<start>
